svgs/sharp-regular/money-check.svg

<svg xmlns="http://www.w3.org/2000/svg" viewBox="0 0 576 512"><!--! Font Awesome Pro 6.6.0 by @fontawesome - https://fontawesome.com License - https://fontawesome.com/license (Commercial License) Copyright 2024 Fonticons, Inc. --><path d="M48 112l0 288 480 0 0-288L48 112zM0 64l48 0 480 0 48 0 0 48 0 288 0 48-48 0L48 448 0 448l0-48L0 112 0 64zM288 208l0 48L96 256l0-48 192 0zm192 96l0 48L96 352l0-48 384 0zm0-144l0 96-128 0 0-96 128 0z"/></svg>

<svg xmlns="http://www.w3.org/2000/svg" viewBox="0 0 576 512"><!--! Font Awesome Pro 6.4.2 by @fontawesome - https://fontawesome.com License - https://fontawesome.com/license (Commercial License) Copyright 2023 Fonticons, Inc. --><path d="M48 112V400H528V112H48zM0 64H48 528h48v48V400v48H528 48 0V400 112 64zM288 208v48H96V208H288zm192 96v48H96V304H480zm0-144v96H352V160H480z"/></svg>
